X: 37869
T: Sound Of Harris, The
R: reel
M: 4/4
K: Dmajor
|:D3F AF(3FFF|defd BA(3AAA|D3F AFAB|dBAF E3F|
D3F AF(3FFF|defd BA(3AAA|adef dBAF|ABdB AD(3DDD:|
|:a3f afef|defd BA(3AAA|a2af afef|defb e2fe|
dB(3BBB AF(3FFF|dBaf ef(3fff|dB(3BBB AF(3FFF|DEFD E3B:|

